X:1
T: Colonel McDowell's March
M: C
B: James Campbell's Collection 1798
Z: source from Highland Music Trust, chords by Gary Whaley
L: 1/8
K:Bb
F>F [|: "Bb" B4 {d}c>B"F"c>d | "Bb" B2 B>B B2 F>F | \
d4 {f}"Eb"e>c"F"d>e | "Bb" d2 d>d d2 f2 |
|"Eb" {^f}g2 (g2g)abg | "Bb/D" {=e}f2 f4 "C7" (3(gab) | \
"F" ag"C7"bg "F" f2 "C7" =e2 | "F" f2 f>f f2 :|]
F>F [|: ~f2>d2 "Cm/G"gfed | "Cm" ~e2>c2 "Bb/F" fedc |\
 "Bb" dBed gf"Cm/Eb"ed | "F" [cAF]2 [cAF]>[cAF] [cAF]2 F>F |
|"Bb" B2>F2 "F/A" c2>F2 | "Bb" defg fgab/g/ |\
"Bb/D" f>e/f/"Eb"ge "Bb/F" d2 "F" c2 | "Bb" B2 B>B B2 :|]